!!!!SEGMENT: pl-wumfc--r266--001-004_paderewski-ignacy-jan--tatra-album-maestoso.krn
!!!cenid: 18xx:3156
!!!COM: Paderewski, Ignacy Jan
!!!COM-rismID: pe30029943
!!!CDT: 1860/11/18-1941/06/29
!!!CNT: Polish
!!!GTL: Tatra Album
!!!OTL: Maestoso
!!!OMV: 004
!!!PDT:
!!!AGN:
!!!SMS-siglum: PL-Wumfc
!!!SMS-shelfmark: R266
!!!SMS-shelfwork: 001-004 G
!!!SMS-variant:
!!!SMS-altvar:
!!!NIFC-rismSourceID: 1001156225
!!!NIFC-rismChildID: 1001156301
!!!NIFC-islandoraID: pl-wumfc:309
!!!URL-pdf-islandora: https://repozytorium.nifc.pl/islandora/object/pl-wumfc%3A309/datastream/PDF/view
!!!URL-scan: https://polish.musicsources.pl/pl/lokalizacje/galeria/rekopisy/4686 @EN{Scan on Polish Music Sources Website} @PL{Skany w portalu Dziedzictwo Muzyki Polskiej w otwartym dostępie}
!!!IIIF:
!!!ONB-nifc: UWAGA: zbiór zawiera utwory na 4 ręce numerowane I-VI. Nr 004 od skanu 0013
!!!OMD: Maestoso.
!!!AIN: 4 piano
!!!key: E-
!!!filter-modern: sic -sq | shed -k -e "s/:TUP:/:tup:/L" |  shed -e "s/yy//" | shed -e "s/:rj/:RJ/L" | shed -k -e "s/([^a-gA-Gn#X-])[<>]/$1/g" | shed -e "s/LO:DY:(a|b|rj)/LO:dy:$1/L" | shed -e "s/-//B" | shed -e "s/^(\d+[\/\\]right)/$1yy/I;s/^(\d+[\/\\]left)/$1yy/I" | autostem -r | modori -m
**kern	**kern	**dynam	**kern	**kern	**dynam
*group2	*group2	*	*group1	*group1	*
*part4	*part3	*part3	*part2	*part1	*part1
*staff4	*staff3	*	*staff2	*staff1	*
*I"[Clavier]	*I"[Clavier]	*	*I"[Clavier]	*I"[Clavier]	*
*I'	*I'	*	*I'	*I'	*
*Ipiano	*Ipiano	*	*Ipiano	*Ipiano	*
*ICklav	*ICklav	*	*ICklav	*ICklav	*
*IGsolo	*IGsolo	*	*IGsolo	*IGsolo	*
*mI"Pianoforte II	*mI"Pianoforte II	*	*mI"Pianoforte I	*mI"Pianoforte I	*
*mI'pf II	*mI'pf II	*	*mI'pf I	*mI'pf I	*
*clefF4	*clefF4	*	*clefG2	*clefG2	*
*k[b-e-a-]	*k[b-e-a-]	*	*k[b-e-a-]	*k[b-e-a-]	*
*E-:	*E-:	*	*E-:	*E-:	*
*M2/4	*M2/4	*	*M2/4	*M2/4	*
*kcancel	*kcancel	*	*kcancel	*kcancel	*
=1	=1	=1	=1	=1	=1
!	!	!	!	!	!LO:MO:mod=!null:null
!	!LO:TX:t=P:problem=brak źródła	!	!	!	!LO:DY:t=sf.
*	*	*	*ped	*	*
2ryy	2ryy	.	(>4G/ 4B-/ 4e-/	(>4g/ 4b-/ 4ee-/	sf
!	!	!	!	!	!LO:MO:mod=!null:null
!	!	!	!	!	!LO:DY:t=forte.
.	.	.	4B-/~>	4b-/~>	f
=2	=2	=2	=2	=2	=2
2ryy	2ryy	.	4e-/~>	4ee-/~>	.
*	*	*	*Xped	*	*
.	.	.	4f/)~>	4ff/)~>	.
=3	=3	=3	=3	=3	=3
*	*	*	*ped	*	*
2ryy	2ryy	.	(>4B-/ 4e-/ 4g/	(>4b-/ 4ee-/ 4gg/	sf
.	.	.	4e-/	4ee-/	.
=4	=4	=4	=4	=4	=4
2ryy	2ryy	.	2B-^>/)	2b-^>/)	.
*	*	*	*Xped	*	*
=5	=5	=5	=5	=5	=5
*	*	*	*	*^	*
*	*	*	*	*	*2\right	*
2ryy	2ryy	.	(>8B-/L	(8b-/L	2f\ 2a-	<
.	.	.	8c/J	8cc/J	.	.
.	.	.	4d/	4dd/	.	[[
*	*	*	*	*v	*v	*
=6	=6	=6	=6	=6	=6
*	*	*	*ped	*	*
2ryy	2ryy	.	2e-/)	2g/) 2b-/ 2ee-/	sf
*	*	*	*Xped	*	*
=7	=7	=7	=7	=7	=7
*	*	*	*ped	*	*
!	!	!	!	!	!LO:MO:null:mod=f
2ryy	2ryy	.	(>4G^>/ 4B-/ 4e-/	(>4g^>/ 4b-/ 4ee-/	.
!	!	!	!`	!	!LO:DY:t=forte
!	!	!	!	!	!LO:MO:null:mod=.
.	.	.	4B-/)~>	4b-/~>	f
!!LO:LB:g=original
=8	=8	=8	=8	=8	=8
2ryy	2ryy	.	4e-/	4ee-\~>	.
.	.	.	4f/	4ff\)~>	.
=9	=9	=9	=9	=9	=9
2ryy	2ryy	.	(>4B-/ 4e-/ 4g/	(>4b-\ 4ee-\ 4gg\	sf
.	.	.	4e-/	4ee-\	.
=10	=10	=10	=10	=10	=10
2ryy	2ryy	.	2B-^>/)	2b-^>/)	.
=11	=11	=11	=11	=11	=11
*	*	*	*	*^	*
2ryy	2ryy	.	(>8B-/L	(8b-/L	2f\ 2a-\	<
.	.	.	8c/J	8cc/J	.	.
.	.	.	4d/	4dd/	.	[[
*	*	*	*	*v	*v	*
=12	=12	=12	=12	=12	=12
*	*	*	*ped	*	*
2ryy	2ryy	.	2e-/)	2g/) 2b-/ 2ee-/	sf
=13	=13	=13	=13	=13	=13
*	*	*	*	*	*^
*	*	*	*ped	*	*	*
!	!	!	!	!	!	!LO:HP:i:t=molto cresc.
2ryy	2ryy	.	4g^</ 4b-/	(>4gg^<\	<	<
.	.	.	4g/	4gg\	.	.
=14	=14	=14	=14	=14	=14	=14
*	*	*	*ped	*	*	*
2ryy	2ryy	.	4b-/	4ee-\ 4bb-\	.	.
.	.	.	4b-/	4bb-\)	[	.
*	*	*	*	*	*v	*v
!!LO:LB:g=original
=15	=15	=15	=15	=15	=15
2ryy	2ryy	.	(<8a-^</L 8cc/	(>8aa-\L	.
.	.	.	8g/J	8gg\J	.
.	.	.	4f/	4ff\	.
=16	=16	=16	=16	=16	=16
2ryy	2ryy	.	4b-/	4dd\ 4bb-\	.
.	.	.	4f/)	4ff\)	.
=17	=17	=17	=17	=17	=17
!	!	!	!	!	!LO:MO:mod=!null:null
!	!	!	!	!	!LO:DY:t=ff.
2ryy	2ryy	.	(<4b-/	(>4bb-\	ff
.	.	.	4e-/	4ee-\	.
=18	=18	=18	=18	=18	=18
2ryy	2ryy	.	8d/L~>	8dd\L~>	.
.	.	.	8c/J~>	8cc\J~>	.
.	.	.	4B-/)~>	4b-\)~>	.
=19	=19	=19	=19	=19	=19
2ryy	2ryy	.	8r	8r	.
.	.	.	(<8c/L	(>8cc\L	.
!	!	!	!	!	!LO:DY:t=ff.
!	!	!	!	!	!LO:MO:null:mod=.
.	.	.	8d/	8dd\	ff
.	.	.	8e-/J	8ee-\J	.
=20	=20	=20	=20	=20	=20
2ryy	2ryy	.	8a-/L	8aa-\L	.
.	.	.	8g/J	8gg\J	.
.	.	.	4f/)	4ff\)	.
!!LO:LB:g=original
=21	=21	=21	=21	=21	=21
*	*	*	*ped	*	*
2ryy	2ryy	.	(<4g^/ 4b-/	(>4gg^>\	<
.	.	.	4g/	4gg\	.
=22	=22	=22	=22	=22	=22
!	!	!	!	!	!LO:MO:null:mod=!LO&colon;HP&colon;t=molto cresc.
!	!	!	!	!	!LO:HP:i:t=molto cres.
2ryy	2ryy	.	4b-/	4ee-\ 4bb-\	[ <
.	.	.	4b-/)	4bb-\)	.
*	*	*	*Xped	*	*
=23	=23	=23	=23	=23	=23
2ryy	2ryy	.	(<8a-^</L 8cc/	(>8aa-\L	.
.	.	.	8g/J	8gg\J	.
.	.	.	4f/	4ff\	.
=24	=24	=24	=24	=24	=24
2ryy	2ryy	.	4b-/	4dd\ 4bb-\	.
.	.	.	4f/)	4ff\)	.
=25	=25	=25	=25	=25	=25
*	*	*	*ped	*	*
2ryy	2ryy	.	(<4b-/	(4bb-\	ff
.	.	.	4e-/	4ee-\	.
*	*	*	*Xped	*	*
=26	=26	=26	=26	=26	=26
2ryy	2ryy	.	8d/L~>	8dd\L~>	.
.	.	.	8c/J~>	8cc\J~>	.
.	.	.	4B-/)~>	4b-\)~>	.
!!LO:LB:g=original
=27	=27	=27	=27	=27	=27
2ryy	2ryy	.	8r	8r	.
.	.	.	(<8c/L	(>8cc\L	<
.	.	.	8d/	8dd\	.
.	.	.	8e-/J	8ee-\J	.
=28	=28	=28	=28	=28	=28
2ryy	2ryy	.	4.a-/	4.aa-\	[
.	.	.	8g/)	8gg\)	.
=29	=29	=29	=29	=29	=29
*	*	*	*	*2\left	*
2ryy	2ryy	.	[<2g/ [>2a-	[<2dd\ [>2gg	sf
=30	=30	=30	=30	=30	=30
2ryy	2ryy	.	4.g;>/] 4.a-]	4.dd;>\] 4.gg]	.
.	.	.	8g/	8gg\	.
=31||	=31||	=31||	=31||	=31||	=31||
!!!OMD: Vivace grazioso
*k[f#c#g#d#a#]	*k[f#c#g#d#a#]	*	*k[f#c#g#d#a#]	*k[f#c#g#d#a#]	*
!	!	!	!	!LO:TX:b:i:t=leggiero	!
2ryy	2ryy	.	4f#/	(>(>4ff#\	.
.	.	.	4f#^</	(>16ee#X\KL	.
.	.	.	.	8.gg#\J)	.
=32	=32	=32	=32	=32	=32
2ryy	2ryy	.	4r	4.ff#\	.
.	.	.	4f#^</	.	.
.	.	.	.	8een\)	.
!!LO:LB:g=original
=33	=33	=33	=33	=33	=33
2ryy	2ryy	.	4r	8dd#'>^>\L	.
.	.	.	.	(>16dd#\L	.
.	.	.	.	16f#\JJ)	.
.	.	.	4f#^>/	8dd#'>\L	.
.	.	.	.	8ee'>\J	.
=34	=34	=34	=34	=34	=34
!	!	!	!	!LO:TX:t=P:problem=8\right	!
2ryy	2ryy	.	4r	(>8e\L 8a# 8dd#	.
!	!	!	!	!LO:TX:t=P:problem=8\right	!
.	.	.	.	8cc#\J)	.
.	.	.	4f#^>/	4d#^>/) 4b	.
=35	=35	=35	=35	=35	=35
2ryy	2ryy	.	4r	(4ff#\	mp
.	.	.	4f#/	16ee#X\KL	.
.	.	.	.	8.gg#\J	.
=36	=36	=36	=36	=36	=36
2ryy	2ryy	.	4r	4.ff#\	.
.	.	.	4f#/	.	.
!	!	!	!	!LO:TX:t=P:problem=all\right&colon; global	!
.	.	.	.	8een\	.
=37	=37	=37	=37	=37	=37
2ryy	2ryy	.	4r	8dd#'>^>\L	<
.	.	.	.	(>16dd#\L	.
.	.	.	.	16f#\JJ)	.
.	.	.	4f#/	8dd#'>\L	.
.	.	.	.	8ee'>\J	[
=38	=38	=38	=38	=38	=38
2ryy	2ryy	.	4r	(>8e\L 8a# 8dd#	.
.	.	.	.	8cc#\J)	.
.	.	.	4f#^</	4d#^>/) 4b	.
!!LO:PB:g=original
=39	=39	=39	=39	=39	=39
!	!	!LO:MO:mod=!null:null	!	!	!
!	!	!LO:DY:t=mf.	!	!LO:TX:t=P:problem=all\left&colon; global	!
2BBB\ 2FF#\ 2BB\	4r	mf	4r	8b\L	f
.	.	.	.	8cc#\J	.
.	4F#^>\ 4B\ 4e\	.	4g#^>/	8dd#^>\L	.
.	.	.	.	8ee\J	.
=40	=40	=40	=40	=40	=40
2BBB\ 2FF#\ 2BB\	4r	.	8f#/L	8dd#'>\L	.
.	.	.	8f#/J	(>16dd#\L	.
.	.	.	.	16b\JJ)	.
.	4F#^>\ 4B\ 4e\	.	4g#^>/	8dd#^>\L	.
.	.	.	.	8ee\J	.
=41	=41	=41	=41	=41	=41
2BBB\ 2FF#\ 2BB\	4r	.	8f#/L	8dd#'>\L	.
.	.	.	8f#/J	(>16dd#\L	.
.	.	.	.	16b\JJ)	.
.	4F#^>\ 4B\ 4e\	.	4g#^>/	8dd#^>\L	.
.	.	.	.	8ee\J	.
=42	=42	=42	=42	=42	=42
4BBB\	4F#\	.	4r	8e'>\L 8a#\ 8dd#\	.
.	.	.	.	8cc#'>\J	.
!	!	!LO:DY:a:t=sf.	!	!	!LO:DY:a
4BB\	4BB\ 4F#\ 4B\	sf	4f#^>/	4d#/ 4b/	sf sf
=43	=43	=43	=43	=43	=43
2BBB\ 2FF#\ 2BB\	4r	.	4r	8b\L	.
!	!	!	!	!LO:TX:b:i:t=cres_cen_do:problem=dynamics with extention lines:mod=	!LO:HP:b:i:t=cres-cen-do:ext=ud
.	.	.	.	8cc#\J	<
!	!	!LO:MO:mod=!null:null	!	!	!
!	!	!LO:DY:rj:t=f.	!	!	!
.	4F#^>\ 4B\ 4e\	f <	4g#^>/	8dd#^>\L	.
.	.	.	.	8ee\J	.
=44	=44	=44	=44	=44	=44
2BBB\ 2FF#\ 2BB\	4r	.	8f#/L	8dd#'>\L	.
.	.	.	8f#/J	(>16dd#\L	.
.	.	.	.	16b\JJ)	.
.	4F#^>\ 4B\ 4e\	.	4g#^>/	8dd#^>\L	.
.	.	[[	.	8ee\J	.
=45	=45	=45	=45	=45	=45
2BBB\ 2FF#\ 2BB\	4r	.	8f#/L	8dd#\L	.
.	.	.	8f#/J	(>16dd#\L	.
.	.	.	.	16b\JJ)	[
.	4F#^>\ 4B\ 4e\	.	4g#^>/	8dd#^>\L	.
.	.	.	.	8ee\J	.
!!LO:LB:g=original
=46	=46	=46	=46	=46	=46
!	!	!	!	!LO:TX:t=P:problem=8\right	!
4BBB\	4F#\	.	4r	8e\L 8a#\ 8dd#\	.
!	!	!	!	!LO:TX:t=P:problem=8\right	!
.	.	.	.	8cc#\J	.
4BB\	4BB^>\ 4F# 4B	.	4f#^>/	4d#^>/ 4b/	.
=47	=47	=47	=47	=47	=47
!LO:TX:t=P:4\right:problem	!	!	!	!LO:TX:a:t=Risoluto.:mod=risoluto	!
4BBB\ 4BB\	2BB\ 2D#\ 2B\	ff	4f#/	(4b\ 4dd#\ 4ff#\	ff
4GGG#\ 4GG#\	.	.	(>16e#X/KL	(>16b\KL 16dd#\ 16ee#X\	.
.	.	.	8.g#/J)	8.gg#\J)	.
=48	=48	=48	=48	=48	=48
*	*2\right	*	*	*	*
!	!	!	!	!LO:TX:t=P:4\right:problem	!
4AAA#\ 4AA#\	2AA#\ 2C##X\ 2A#\	.	4.f#^>/	4.a#^>\ 4.cc##X 4.ff#	.
4GGG#\ 4GG#\	.	.	.	.	.
.	.	.	8e#X/	8ee#X\	.
=49	=49	=49	=49	=49	=49
!LO:TX:t=P:4\right:problem	!	!	!	!	!
4FFF#\ 4FF#\	4AA#\ 4D#\ 4A#\	.	4d#/ 4f#/	8dd#\L	.
.	.	.	.	(>16dd#\L	.
.	.	.	.	16a#\JJ)	.
*8ba	*	*	*	*	*
4CCC#\ 4CC#\	4BB\ 4G#\ 4B\	.	8d#/L	8g#\L 8dd#	.
.	.	.	8e/J	8ee\J	.
*X8ba	*	*	*	*	*
=50	=50	=50	=50	=50	=50
*	*	*	*	*^	*
4FFF#\ 4FF#\	4AA#\ 4F#\ 4A#\	.	8d#/L	8e/L 8dd#/	4a#\	.
.	.	.	8c#/J	8cc#/J	.	.
*	*	*	*	*v	*v	*
*8ba	*	*	*	*	*
*	*	*	*	*^	*
4BBBB\ 4BBB	4BB\ 4D#\ 4F#\ 4B\	.	4d#/	4f#/) 4b/	4ryy	sf
*	*	*	*	*v	*v	*
*X8ba	*	*	*	*	*
=51	=51	=51	=51	=51	=51
*	*2\left	*	*	*	*
!LO:TX:t=P:4\right:problem	!	!	!	!	!
(>4BBB\ 4BB\	2BB\ 2D#\ 2B\	.	4f#/	(>4b^>\ 4dd#\ 4ff#\	.
!	!	!	!	!	!LO:DY:rj
4AAAn\ 4AAn\	.	.	(<16e#X/KL	(>16ee#X\KL	ff
.	.	.	8.g#/J)	8.gg#\J))	.
!!LO:LB:g=original
=52	=52	=52	=52	=52	=52
!LO:TX:t=P:4\right:problem	!	!	!	!	!
4GGG#\ 4GG#	2BB\ 2E\ 2B\	>	4.f#/	4.b\ 4.ff#\	.
4GGGn\) 4GGn	.	.	.	.	.
!	!	!	!	!LO:TX:t=P:problem=8\right	!
.	.	.	8e#X/	8een\	>
=53	=53	=53	=53	=53	=53
!	!LO:TX:t=P:4\right:problem	!	!	!	!
4FFF#\ 4FF#	4BB\ 4D#\ 4B\	.	4d#/ 4f#/	8dd#'>\L	.
!	!	!	!	!LO:TX:t=P:problem=8\right	!
.	.	.	.	(>16dd#\L	.
.	.	.	.	16b\JJ)	.
!LO:TX:t=P:4\right:problem	!	!	!	!LO:TX:t=P:problem=8\right	!
4EEE\ 4EE	4BB\ 4Gn\ 4B\	.	4e/	8gn^>\L 8dd#	.
.	.	]]	.	8ee'>\J	]
=54	=54	=54	=54	=54	=54
4FFF#\ 4FF#	4AA#\ 4F#\ 4A#\	.	8d#'>/L 8f#/	8dd#'>\L	.
.	.	.	8c#'>/J 8e/	8cc#'>\J	.
*8ba	*	*	*	*	*
4BBBB\ 4BBB	4BB^>\ 4D#\ 4F#\ 4B\	.	4d#^>/ 4f#/	4b^>\	.
*X8ba	*	*	*	*	*
=55	=55	=55	=55	=55	=55
!!!OMD:
!!!OMD-mod: Animato un poco
!	!LO:TX:t=P:problem=4\right&colon; global	!LO:MO:mod=!null:null	!	!	!LO:MO:mod=!null:null
!	!LO:TX:a:t=animato un poco.:mod=	!LO:DY:t=piano	!	!LO:TX:a:t=Piu mosso.:mod=	!LO:DY:t=piano
[<2BB\	(>4F#\	p	4d#/	(>8b\L	p
.	.	.	.	8cc#\J)	.
.	4Gn^>\)	.	4e^>/	8dd#^>\L	.
.	.	.	.	8ee\J	.
=56	=56	=56	=56	=56	=56
2BB\]	(>4F#\	.	4d#/	8dd#'>\L	.
.	.	.	.	(>16dd#\L	.
!	!	!	!	!LO:TX:b:i:t=leggiero.:mod=leggiero	!
.	.	.	.	16b\JJ)	.
.	4Gn^>\)	.	4e^</	8dd#\L	.
.	.	.	.	8ee\J	.
=57	=57	=57	=57	=57	=57
[>2BB\	(>4F#\	.	4d#/	8dd#'>\L	.
.	.	.	.	(>16dd#\L	.
.	.	.	.	16b\JJ)	.
!	!LO:TX:t=P:problem=4\left&colon; global	!	!	!	!
.	4Gn^>\)	.	4e^</	8dd#\L	.
.	.	.	.	8ee\J	.
!!LO:LB:g=original
=58	=58	=58	=58	=58	=58
!	!	!	!	!LO:TX:t=P:problem=8\right	!
4BB\]	4F#\	.	4e/	8a#\L 8dd#\	.
!	!	!	!	!LO:TX:t=P:problem=8\right	!
.	.	.	.	8cc#\J	.
!LO:TX:t=P:4\right:problem	!	!	!	!	!
4BBB\	4B\	.	4d#^>/	4f#^>/ 4b/	.
=59	=59	=59	=59	=59	=59
*	*^	*	*	*	*
!	!	!	!LO:MO:mod=!null:null	!	!	!
!LO:TX:t=P:4\right:problem	!	!	!LO:DY:t=pp.	!	!	!
4EE\ 4BB\	(>8B/L	4G#\	pp	2r	2r	.
.	8c#/J	.	.	.	.	.
4BBB\ 4BB\	8d#/L	4F#\	.	.	.	.
!	!LO:TX:b:i:t=agitato	!	!	!	!	!
.	8e/J	.	.	.	.	.
=60	=60	=60	=60	=60	=60	=60
4EE\ 4BB\	8d#/L	4G#\	.	2r	2r	.
.	(<16d#/L	.	.	.	.	.
.	16B/JJ)	.	.	.	.	.
4BBB\ 4BB\	8d#/L	4F#\	.	.	.	.
.	8e/J	.	.	.	.	.
=61	=61	=61	=61	=61	=61	=61
4EE\ 4BB\	8d#/L	4G#\	.	2r	2r	.
.	(<16d#/L	.	.	.	.	.
.	16B/JJ)	.	.	.	.	.
4BBB\ 4BB\	8d#/L	4F#\	.	.	.	.
.	8e/J	.	.	.	.	.
*	*v	*v	*	*	*	*
=62	=62	=62	=62	=62	=62
!	!LO:TX:t=P:problem=8\right	!	!LO:TX:a:i:t=rit.	!	!
4FF#\	8E\L 8A#\ 8d#\	.	4r	2r	.
!	!LO:TX:t=P:problem=8\right	!	!	!	!
.	8c#\J	.	.	.	.
!LO:TX:t=P:4\right:problem	!LO:TX:b:i:t=rit.	!	!	!	!
4BBB^>\ 4BB\	4D#^>\) 4F# 4B	.	4f#^>/	.	.
=63	=63	=63	=63	=63	=63
!	!	!	!	!	!LO:MO:null:mod=!LO&colon;HP&colon;t=poco a poco crescendo e agitato
!	!	!	!	!	!
!	!	!	!	!	!LO:MO:null:mod=<
4GG#\	4D#\ 4B\	<	2r	(<8d#/L	.
!	!	!	!	!LO:TX:b:i:t=poco a:mod=	!
.	.	.	.	8e#X/J)	.
!LO:TX:t=P:4\right:problem	!	!	!	!	!
4DD#\	4D#\ 4A#\	.	.	8f#^>/L	.
!	!	!LO:MO:null:mod=.	!	!	!
.	.	[[	.	8g#/J	.
!!LO:LB:g=original
=64	=64	=64	=64	=64	=64
!	!	!	!	!	!LO:HP:i:t=poco crescendo
!	!	!LO:MO:null:mod=.	!	!	!LO:MO:null:mod=.
4GG#\	4D#\ 4B\	<	2r	8f#/L	<
.	.	.	.	(<16f#/L	.
.	.	.	.	16d#/JJ)	.
!LO:TX:t=P:4\right:problem	!	!	!	!	!
4DD#\	4D#\ 4A#\	.	.	8f#/L	.
.	.	.	.	8g#/J	.
=65	=65	=65	=65	=65	=65
!	!	!LO:MO:mod=!LO&colon;HP&colon;t=molto cresc. e agitato	!	!	!
!	!	!LO:HP:i:t=molto cres. ed. agitato.	!	!	!
4GG#\	4D#\ 4B\	[ <	2r	8f#/L	.
.	.	.	.	(<16f#/L	.
.	.	.	.	16d#/JJ)	.
!LO:TX:t=P:4\right:problem	!	!	!	!	!
4DD#\	4D#\ 4A#\	.	.	8f#'</L	<
!	!	!	!	!LO:TX:b:i:t=e agitato.:mod=	!
.	.	.	.	8g#'</J	.
=66	=66	=66	=66	=66	=66
!	!LO:TX:t=P:4\right:problem	!LO:MO:null:mod=.	!	!	!
4AA#\	4C##X\ 4G#\ 4A#\	<	4c##X/	8f#/L	.
!	!	!	!	!LO:TX:b:i:t=rit.	!
.	.	.	.	8e#X/J	[
!LO:TX:t=P:4\right:problem	!	!	!	!	!LO:MO:mod=!null:null
!LO:TX:a:i:t=rit:mod=rit.	!LO:TX:a:i:t=rit:mod=	!	!	!	!LO:DY:t=sf.
4DD#\	4D#^>\ 4F#\ 4A#\	[	4d#/	4a#/	sf
=67	=67	=67	=67	=67	=67
*8ba	*	*	*	*	*
2CCC#\	4r	.	4r	8f#/L	.
!	!	!	!	!	!LO:DY:rj
.	.	.	.	8g#/J	f
!	!	!LO:MO:mod=!null:null	!	!	!
!	!	!LO:DY:rj:t=forte	!	!	!
.	4C#^>\ 4G#\	f	4B/ 4d#/	8f#^>/L 8a#/	sf
.	.	.	.	8b/J	.
!LO:MO:mod=*null:null	!	!	!	!	!
*X8ba	*	*	*	*	*
=68	=68	=68	=68	=68	=68
!LO:MO:mod=*null:null	!	!	!	!	!
*8ba	*	*	*	*	*
2CCC#\	4r	.	4r	8f#/L 8a#/	.
.	.	.	.	(<16a#/L	.
.	.	.	.	16f#/JJ)	.
!	!	!	!	!	!LO:MO:mod=!null:null
!	!	!	!	!	!LO:DY:t=sf.
.	4C#^>\ 4G#\	.	4B/ 4d#/	8f#^>/L 8a#/	sf
.	.	.	.	8b/J	.
!LO:MO:mod=*null:null	!	!	!	!	!
*X8ba	*	*	*	*	*
=69	=69	=69	=69	=69	=69
!LO:MO:mod=*null:null	!	!	!	!	!
*8ba	*	*	*	*	*
2CCC#\	4r	.	4r	8f#/L 8a#/	.
.	.	.	.	(<16a#/L	.
.	.	.	.	16f#/JJ)	.
.	4C#\ 4G#\	.	4B/ 4d#/	8f#^>/L 8a#/	sf
.	.	.	.	8b/J	.
!LO:MO:mod=*null:null	!	!	!	!	!
*X8ba	*	*	*	*	*
!!LO:LB:g=original
=70	=70	=70	=70	=70	=70
!LO:MO:mod=*null:null	!	!	!	!	!
*8ba	*	*	*	*	*
!	!LO:TX:b:i:t=poco ritar:mod=poco ritardando	!	!	!LO:TX:b:i:t=poco ritardando	!
2CCC#\	4r	.	4B/	8e#X/L 8a#/	.
.	.	.	.	8g#/J	.
.	4C#\ 4G#\	.	4B^>/ 4c#/	8e#^>/L 8a#/	.
.	.	.	.	8g#/J	.
*X8ba	*	*	*	*	*
=71	=71	=71	=71	=71	=71
!	!	!	!	!LO:TX:a:t=allargando:mod=	!
[<2FFF#\ [>\2FF#	4C#\ 4F#\	.	4A#/ 4c#/	8f#/L	.
.	.	.	.	8g#/J	.
.	4r	.	8f#/	8r	.
.	.	.	8r	8g#/	.
=72	=72	=72	=72	=72	=72
*	*2\right	*	*	*	*
2FFF#\_< 2FF#\_>	[<2F#\ 2B [>2c# [>2e	.	8f#/	8r	.
.	.	.	8r	8g#/	.
.	.	.	8f#/	8r	.
.	.	.	8r	(>8cc#\	.
=73	=73	=73	=73	=73	=73
*	*2\left	*	*	*	*
2FFF#\_< 2FF#\_>	2F#\] 2A# 2c#] 2e]	.	2r	8b#X\L	.
!	!	!	!	!LO:TX:b:i:t=ritar.:mod=ritard.	!
.	.	.	.	8r	.
.	.	.	.	8.ee\	.
.	.	.	.	16dd#\Jk)	.
=74	=74	=74	=74	=74	=74
2FFF#\] 2FF#\]	2r	.	2r	(>16cc#/LL	.
.	.	.	.	16b/	.
!	!	!	!	!LO:TX:a:i:t=veloce	!
.	.	.	.	16a#/	<
.	.	.	.	16g#/JJ	.
!	!	!	!	!LO:TUP:b:t=P:problem=klamra łukowa	!
.	.	.	.	40f#/LLL	.
.	.	.	.	40e#X/	.
.	.	.	.	40f#/	.
.	.	.	.	40g#/	.
.	.	.	.	40a#/	.
.	.	.	.	40b/	.
.	.	.	.	40cc#/	.
.	.	.	.	40dd#/	.
.	.	.	.	40ee/	.
.	.	.	.	40ee#X/JJJ)	[
=75	=75	=75	=75	=75	=75
!!!OMD:
!!!OMD-mod: Più lento quasi allegretto
!	!	!	!	!LO:TX:a:t=Piu lento. quasi allegretto:mod=	!
!	!LO:TX:a:t=Piu lento quasi allegretto.:mod=	!	!	!LO:TX:b:i:t=cantabile	!
4D#\	(>8F#\L	.	2r	(>4ff#\	.
.	8f#\	.	.	.	.
4Dn\	8G#\	.	.	(>16ee#X\KL	.
.	.	.	.	8.gg#\J)	.
.	8g#\J	.	.	.	.
*	*clefG2	*	*	*	*
!!LO:PB:g=original
=76	=76	=76	=76	=76	=76
!LO:TX:t=P:problem=all\left&colon; global	!	!	!	!	!
4C#\	8G##X/L	.	2r	4.ff#\	.
.	8g##X^</	.	.	.	.
!	!	!	!	!	!LO:MO:mod=!null:null
!	!	!	!	!	!LO:DY:rj:t=p.
4FF#\	8A#/	.	.	.	p
.	8a#^</J)	.	.	8een\	.
=77	=77	=77	=77	=77	=77
*	*clefF4	*	*	*	*
!	!LO:TX:t=P:problem=all\right&colon; global	!	!	!	!
4GG#\	4B\	.	8r	8dd#\L	.
.	.	.	4b^>\	(>16dd#\L	.
!	!	!	!	!LO:TX:b:i:t=ritar.	!
.	.	.	.	16g#\JJ)	.
!	!	!LO:HP:i:t=ritar et crescendo	!	!	!
4CC#\ 4C#	4G#\ 4B	<	.	8dd#\L	.
!	!	!	!	!LO:TX:t=P:problem=8\right	!
.	.	.	8r	8ee\J	.
=78	=78	=78	=78	=78	=78
4.FF#\	8F#\L 8B\ 8f#\	.	2r	8dd#\L	.
.	8A#\J	.	.	[>8cc#\J	.
.	4F#^:>\ 4A#:>\ 4f#:>\	[	.	4cc#\])	.
8E\	.	.	.	.	.
=79	=79	=79	=79	=79	=79
!	!	!LO:MO:mod=!null:null	!	!LO:MO:mod=!LO&colon;TX&colon;a&colon;t=animato un poco	!
!	!LO:TX:a:t=animatoun poco.:mod=animato un poco	!LO:DY:t=mf.	!	!LO:TX:b:i:t=animato un poco.	!
(>4D#\	(>4f#\	mf	(>2b/	(>2bb\	.
4Dn\	16e#X\KL	.	.	.	.
.	8.g#\J	.	.	.	.
=80	=80	=80	=80	=80	=80
4C#\	4.f#\	.	2a#/	2aa#\	.
4Cn\	.	.	.	.	.
.	8en\	.	.	.	.
=81	=81	=81	=81	=81	=81
4BB\	8d#\L	.	[>2b/	[>2bb\	.
.	(>16d#\L	.	.	.	.
.	16B\JJ)	.	.	.	.
4AA#\	8d#\L	.	.	.	.
.	8e\J	.	.	.	.
=82	=82	=82	=82	=82	=82
4AAn\	8d#\L	.	2b/_<	2bb\_>	.
.	8c#\J	.	.	.	.
!	!LO:TX:t=P:problem=all\left&colon; global	!	!	!	!
4GG#\	4B\	.	.	.	.
=83	=83	=83	=83	=83	=83
4GGn\	(>8d#\L)	.	2b/_<	2bb\_>	.
.	16d#\L	.	.	.	.
.	16B\JJ	.	.	.	.
4FF#\	8d#\L	.	.	.	.
.	8e\J	.	.	.	.
!!LO:LB:g=original
=84	=84	=84	=84	=84	=84
!	!LO:TX:t=P:problem=all\right&colon; global	!	!LO:TX:t=P:problem=ligatura kończy się od góry, zaczyna od dołu	!	!
4EE#X\	8d#\L	.	4b/]	4bb\]	.
.	8c#\J	.	.	.	.
!	!LO:MO:null:mod=!LO&colon;TX&colon;i&colon;b&colon;t=rit.	!	!	!	!
!	!	!	!	!LO:TX:b:i:t=rit.	!
4EEn;>\)	4G#;>:\) 4c#:\ 4g#:\	.	4b;</)	4bb;>\)	.
=85	=85	=85	=85	=85	=85
!	!	!	!	!	!LO:MO:null:mod=!LO&colon;DY&colon;ed=brack
!	!LO:MO:mod=!LO&colon;TX&colon;a&colon;t=molto animato	!	!	!LO:MO:null:mod=!LO&colon;TX&colon;a&colon;t=molto animato	!
!LO:TX:t=P:problem=all\right&colon; global	!LO:TX:b:i:t=molto animato	!LO:DY:a	!	!	!LO:MO:null:mod=mf
4FF#\	4C#\ 4G#\ 4A#\	mf	N(>8c#/L	4r	.
.	.	.	8d#/J	.	.
!	!LO:TX:t=P:4\left:problem	!	!	!LO:TX:b:i:t=molto animato:mod=	!
4BBB\ 4FF#\	4C#\ 4F#\ 4A#\	.	4r	8e^</L	.
.	.	.	.	8f#/JN)	.
=86	=86	=86	=86	=86	=86
!LO:TX:t=P:4\left:problem	!	!	!	!	!
4FF#\	4C#\ 4G#\ 4A#\	.	8e/L	4r	.
.	.	.	(<16e/L	.	.
.	.	.	16c#/JJ)	.	.
4BBB\ 4FF#\	4C#\ 4F#\ 4A#\	.	4r	(>8e^>/L	.
.	.	.	.	8f#/J)	.
=87	=87	=87	=87	=87	=87
4FF#\	4C#\ 4G#\ 4A#\	.	8e/L	4r	.
.	.	.	(<16e/L	.	.
.	.	.	16c#/JJ)	.	.
4BBB\ 4FF#\	4C#\ 4F#\ 4A#\	.	4r	(>8e/L	.
.	.	.	.	8f#/J)	.
=88	=88	=88	=88	=88	=88
!	!	!	!	!	!LO:MO:mod=!null:null
!LO:TX:t=P:4\left:problem	!	!	!	!	!LO:DY:t=sf.
[>4FF#\	[<4C#\ 4G#\ [>\4A#	.	2e/	2cc#\)	sf
4BBB\ 4FF#\]	4C#\] 4F#\ 4A#\]	.	.	.	.
=89	=89	=89	=89	=89	=89
!	!	!LO:MO:mod=!null:null	!	!	!
!LO:TX:t=P:4\left:problem	!	!LO:DY:t=mf.	!	!	!LO:DY:a:rj
!	!	!LO:MO:null:mod=mf <	!	!	!
4FF#\ 4C#\	4F#\ 4c#\	mf	4g#/ 4a#/	(8cc#\L	f <
.	.	.	.	8dd#\J	.
!	!LO:TX:t=P:4\left:problem	!	!	!	!
4BBB^>\ 4FF#\	4F#^>\ 4c#\	.	4f#/ 4a#/	8ee\L	.
!	!	!	!	!	!LO:MO:null:mod=.
.	.	.	.	8ff#\J)	[[
!!LO:LB:g=original
=90	=90	=90	=90	=90	=90
!LO:TX:t=P:4\left:problem	!LO:TX:t=P:4\right:problem	!LO:MO:null:mod=.	!	!	!
4FF#\ 4C#\	4F#\ 4c#\	<	4g#/ 4a#/	8ee\L	.
!	!	!	!	!	!LO:HP:i:t=crescendo
!	!	!	!	!	!LO:MO:null:mod=.
.	.	.	.	(>16ee\L	<
.	.	.	.	16cc#\JJ)	.
!LO:TX:t=P:4\right:problem	!LO:TX:t=P:4\left:problem	!	!	!	!
4BBB\ 4FF#\	4F#\ 4c#\	.	4f#/ 4a#/	8ee\L	.
.	.	.	.	8ff#\J	.
=91	=91	=91	=91	=91	=91
!LO:TX:t=P:problem=all\left&colon; global	!LO:TX:t=P:problem=4\middle	!	!	!LO:TX:t=P:problem=8\right	!
4FF#\ 4C#\	4F#\ 4c#\	.	4g#/ 4a#/	8ee\L	.
!	!	!	!	!LO:TX:t=P:problem=16\right	!
.	.	.	.	(>16ee\L	.
!	!	!LO:MO:null:mod=.	!	!	!
.	.	[	.	16cc#\JJ)	.
!	!LO:TX:t=P:problem=4\middle	!	!	!LO:TX:t=P:problem=8\right	!
4BBB\ 4FF#\	4F#\ 4c#\	.	4f#/ 4a#/	8ee\L	.
!	!	!	!	!	!LO:MO:null:mod=.
.	.	.	.	8ff#\J	<
=92	=92	=92	=92	=92	=92
*	*^	*	*	*	*
!	!	!LO:TX:t=P:problem=8\right	!	!	!	!
4FF#\ 4C#\	4c#/	8E\L 8G#\	.	8g#/L	8ee\L 8gg#	.
!	!	!LO:TX:t=P:problem=all\left&colon; global	!LO:DY:rj:t=f.	!	!LO:TX:t=P:problem=8\right&colon; global	!
!	!	!	!LO:MO:null:mod=.	!	!	!
.	.	8A#\J	f	8a#/	8aa#\	.
!	!	!	!	!	!	!LO:DY:t=f.
!	!	!	!LO:MO:null:mod=[	!	!	!LO:MO:null:mod=[
4BBB\ 4FF#\	4ryy	8BB\L 8G#\ 8B\	.	8b/	8bb\	[ f
.	.	8C#\J 8A#\ 8c#\	.	8cc#/J	8ccc#\J	.
*	*v	*v	*	*	*	*
=93||	=93||	=93||	=93||	=93||	=93||
!!!OMD:
!!!OMD-mod: Tempo I°
*k[b-e-a-]	*k[b-e-a-]	*	*k[b-e-a-]	*k[b-e-a-]	*
!	!	!	!	!LO:TX:t=P:problem=all\middle&colon; global	!
!	!LO:TX:a:t=Tempo I°:mod=	!	!LO:SIC:s=(4g/ 4b-/ 4ee-/	!LO:TX:a:t=Tempo I°:mod=	!
!	!LO:SIC:s=(4E-\ 4G\ 4B-\ 4e-\	!	!	!	!
2EEE-\ [>2EE-\	4E-\ 4G\ 4B-\ 4e-\	ff	4g/ 4b-/ 4ee-/	(>4gg\ 4bb-\ 4ggg\	ff
.	4BB-\ 4B-\	.	4b-/	4bb-\	.
=94	=94	=94	=94	=94	=94
2EE-\]	4E-\ 4G\ 4B-\ 4e-\	.	4g/ 4b-/ 4ee-/	4gg\ 4bb-\ 4ggg\	.
.	4F\ 4f\	.	4ff/	4fff\	.
=95	=95	=95	=95	=95	=95
*	*	*	*ped	*	*
[<2EEE-\ [>2EE-\	4G\ 4B-\ 4e-\ 4g\	sf	4b-\ 4ee-\ 4gg\	4bb-\ 4eee-\ 4ggg\	sf
.	4E-\ 4e-\	.	4ee-\	4ee-\ 4eee-\	.
!!LO:LB:g=original
=96	=96	=96	=96	=96	=96
!	!LO:SIC:s=2BB-\ 2B-\)	!	!LO:SIC:s=2b-^>)	!	!
2EEE-\] 2EE-\]	2BB-\ 2B-\	.	2b-^>/	2bb-^>\)	.
=97	=97	=97	=97	=97	=97
!	!	!	!	!	!LO:MO:null:mod=!LO&colon;HP&colon;ed=brack
!	!	!	!	!	!
!	!	!	!	!LO:TX:t=P:problem=8\right	!LO:MO:null:mod=<
2BBB-\	(8BB-\L 8F\ 8A-\ 8B-\	<	(>8f\L 8a-\ 8b-\	(8ff\L 8aa-\ 8bb-\	.
!	!LO:TX:t=P:problem=8\middle	!	!LO:TX:t=P:problem=8\right	!LO:TX:t=P:problem=al\left&colon; global	!
.	8C\J 8c\	.	8cc\J	8ccc\J	.
!	!	!	!	!	!LO:MO:null:mod=[[
.	4D\ 4A-\ 4B-\ 4d\	[[	4dd\	4ddd\	.
=98	=98	=98	=98	=98	=98
!	!	!	!	!	!LO:MO:mod=!null:null
!	!	!	!	!	!LO:DY:t=sf.
2EEE-\ 2EE-\	2E-\) 2G\ 2B-\ 2e-\	sf	2g\) 2b- 2ee-	2gg\) 2bb-\ 2ggg\	sf
=99	=99	=99	=99	=99	=99
!	!	!LO:MO:null:mod=!LO&colon;DY&colon;ed=brack	!	!	!
!	!LO:TX:t=P:problem=all\left&colon; global	!	!	!	!
!	!LO:SIC:s=(4E-\ 4G\ 4B-\ 4e-\	!LO:MO:null:mod=ff	!LO:TX:t=P:all\right:glboal:problem	!	!LO:MO:null:mod=ff
[>2EE-\	4E-\ 4G\ 4B-\ 4e-\	.	(4g\ 4b-\ 4ee-\	(4gg\ 4bb-\ 4ggg\	.
!	!	!	!	!	!LO:DY:rj
!	!	!	!	!	!LO:MO:null:mod=.
.	4BB-\ 4B-\	.	4b-\	4bb-\	ff
=100	=100	=100	=100	=100	=100
2EE-\]	4E-\ 4G\ 4B-\ 4e-\	.	4g\ 4b-\ 4ee-\	4gg\ 4bb-\ 4eee-\	.
!	!LO:TX:t=P:4\right:problem	!	!LO:TX:t=P:4\left:problem	!	!
.	4F\ 4f\	.	4ff\	4fff\	.
=101	=101	=101	=101	=101	=101
!	!	!	!	!	!LO:MO:null:mod=!LO&colon;DY&colon;ed=brack
!	!	!LO:MO:mod=!null:null	!	!	!
!	!LO:TX:t=P:4\right:problem	!LO:DY:t=sf.	!	!	!LO:MO:null:mod=sf
[<2EEE-\ [>2EE-\	4G\ 4B-\ 4e-\ 4g\	sf	4b-\ 4ee-\ 4gg\	4bb-\ 4eee-\ 4ggg\	.
!	!LO:TX:t=P:problem=4\middle	!	!	!	!
.	4E-\ 4e-\	.	4ee-\	4eee-\	.
!!LO:LB:g=original
=102	=102	=102	=102	=102	=102
!	!LO:SIC:s=2BB-\ 2B-\)	!	!LO:TX:t=P:problem=łuk kończy się od góry, zaczyna od dołu	!	!
2EEE-\] 2EE-\]	2BB-\ 2B-\	.	2b-^>/)	2bb-^>\)	.
=103	=103	=103	=103	=103	=103
!	!	!	!	!	!LO:MO:null:mod=!LO&colon;HP&colon;ed=brack
!	!	!	!	!	!
!	!	!	!	!	!LO:MO:null:mod=<
2BBB-\	(>8BB-\L 8F\ 8A-\ 8B-\	<	(>8f/L 8a-/ 8b-/	(>8ff\L 8aa-\ 8bb-\	.
!	!LO:TX:t=P:problem=8\left	!	!	!LO:TX:t=P:problem=8\right	!
.	8C\J 8c\	.	8cc/J	8ccc\J	.
!	!LO:TX:t=P:4\right:problem	!LO:MO:mod=[[	!LO:TX:t=P:problem=all\left&colon; global	!LO:TX:t=P:4\right:problem	!LO:MO:null:mod=[[
.	4D\ 4A-\ 4B-\ 4d\	[	4dd\	4ddd\	.
=104	=104	=104	=104	=104	=104
!	!	!LO:MO:mod=!null:null	!	!	!
!	!	!LO:DY:t=sf.	!	!	!
2EEE-\ 2EE-\	2E-\) 2G\ 2B-\ 2e-\	sf	2g\) 2b-\ 2ee-\	2gg\) 2bb-\ 2ggg\	sf
=105	=105	=105	=105	=105	=105
*	*^	*	*	*	*
!	!	!	!LO:MO:null:mod=!LO&colon;HP&colon;ed=brack	!	!	!
!	!	!	!	!	!	!
!	!	!	!LO:MO:null:mod=!LO&colon;DY&colon;ed=brack	!	!	!
!	!	!	!	!	!	!LO:MO:mod=!null:null
!	!	!	!LO:MO:null:mod=f <	!LO:SIC:s=(4g^</ 4b-/	!	!LO:DY:t=f.
2EE-\ 2BB-\	(>4G/	2E-\	.	4g^</ 4b-/	(>4gg\^>	f <
.	4G/	.	.	4g/	4gg\	.
=106	=106	=106	=106	=106	=106	=106
2GG\ 2BB-\	4B-^>/	2E-\	.	4b-\	4ee-\ 4bb-\	.
!	!	!	!	!	!	!LO:HP:i:t=molto cres.
!	!	!	!	!	!	!LO:MO:null:mod=.
.	4B-/)	.	.	4b-\	4bb-\	[ <
=107	=107	=107	=107	=107	=107	=107
2FF\	(>8A-/L	2C\	.	8a-/L	8cc\L 8aa-\	.
.	8G/J	.	.	8g/J	8gg\J	.
.	4F/	.	.	4f/	4ff\	.
*	*v	*v	*	*	*	*
!!LO:LB:g=original
=108	=108	=108	=108	=108	=108
!	!LO:TX:t=P:problem=all\middle&colon; global	!	!LO:SIC:s=4b-	!LO:TX:t=P:4\right:problem	!
2BBB-\ 2BB-\	4D\ 4B-\	.	(>4b-/	4dd\ 4bb-	.
!	!	!LO:MO:null:mod=[[	!	!	!LO:MO:null:mod=[[
.	4F\)	.	4f/)	4ff\)	.
=109	=109	=109	=109	=109	=109
!LO:TX:t=P:problem=all\right&colon; global	!	!LO:MO:null:mod=ff	!LO:SIC:s=(4b-	!	!
4GGG\ 4GG\	4BB-\ 4E-\ 4B-\	.	4b-/	(>4bb-\	ff
!LO:TX:t=P:4\left:problem	!LO:TX:t=P:problem=all\right&colon; global	!LO:DY:rj	!	!	!
!	!	!LO:MO:null:mod=.	!	!	!
4GG\	4BB-\ 4E-\ 4B-\	ff	4e-/	4ee-\	.
=110	=110	=110	=110	=110	=110
*	*^	*	*	*	*
8FF\L~>	8A-/L	2BB-\	.	8d/L~>	8dd\L~>	.
8EE-\J~>	8G/J	.	.	8c/J~>	8cc\J~>	.
!	!	!	!	!LO:SIC:s=4B-/~>)	!	!
4DD^>\	4F^>/	.	.	4B-/~>	4b-\)~>	.
*	*v	*v	*	*	*	*
=111	=111	=111	=111	=111	=111
2CC\	4C\ 4E-\	.	8r	8r	.
.	.	.	8c/L	(>8cc\L	.
.	4C\ 4E-\ 4G\	.	8d/	8dd\	.
.	.	.	8e-/J	8ee-\J	.
=112	=112	=112	=112	=112	=112
!LO:TX:t=P:4\left:problem	!	!	!	!	!LO:DY:rj:t=ff.
!	!	!	!	!	!LO:MO:null:mod=.
4FF\	4C\ 4F\ 4A-\	.	8a-/L	8aa-\L	ff
.	.	.	8g/J	8gg\J	.
!	!	!	!	!LO:MO:null:mod=!LO&colon;TX&colon;i&colon;b&colon;t=rit.	!
!LO:TX:t=P:4\right:problem	!LO:TX:b:i:t=rit:mod=rit.	!	!	!	!
4BBB-\	4D^>\ 4F\ 4B-\ 4d\	.	4f/	4ff^<\)	.
=113	=113	=113	=113	=113	=113
!	!	!LO:MO:mod=!null:null	!	!	!
!	!	!LO:DY:t=f.	!	!	!
2EE-\	2E-\ 2G\ 2B-\ 2d-X\	f	4g/	4gg\	.
.	.	.	4g/	4gg\	.
!!LO:PB:g=original
=114	=114	=114	=114	=114	=114
*	*2\right	*	*	*	*
!	!	!LO:DY:t=f.	!	!LO:TX:t=P:problem=all\left&colon; global	!
!	!	!LO:MO:null:mod=.	!	!	!
2EEE-\ 2EE-\	2F\ 2A-\ 2B-\ 2d-X\	f	4b-/~>	(>4bb-\~>	<
.	.	.	4b-/~>	4bb-\~>	.
=115	=115	=115	=115	=115	=115
[>2EE-\	2E-\ 2G\ 2B-\ 2d-X\	.	8g/L	8gg\L	.
.	.	.	8f/J	8ff\J	.
.	.	.	4e-/	4ee-\	[
=116	=116	=116	=116	=116	=116
*	*^	*	*	*	*
!	!	!LO:TX:t=P:problem=8\right	!	!	!	!
2EE-\]	4d-X/	8G\L 8B-\	.	4b-/	4bb-\	.
!	!	!LO:TX:t=P:problem=8\left	!	!	!	!
.	.	8F\J 8A-\	.	.	.	.
!	!LO:MO:null:mod=!LO&colon;TX&colon;a&colon;t=[stringendo]	!	!	!	!LO:MO:mod=!LO&colon;TX&colon;a&colon;t=stringendo	!
!	!	!LO:TX:t=P:4\right:problem	!	!	!LO:TX:b:i:t=stringendo.	!
.	4d-^>/	4E-\ 4G\	.	4e-/	4ee-\)	.
*	*v	*v	*	*	*	*
=117	=117	=117	=117	=117	=117
*2\right	*	*	*	*	*
!	!	!LO:MO:mod=!null:null	!	!	!
!	!	!LO:DY:t=sf.	!LO:TX:t=P:problem=8\right&colon; global	!	!
2AAA-\ 2AA-\	2E-\ 2A-\ 2c\	sf	(>8cc\L	(>8ccc\L	.
.	.	.	8b-\J	8bb-\J	.
!	!	!	!LO:TX:t=P:problem=all\left&colon; global	!	!
.	.	.	4a-\	4aa-\	.
=118	=118	=118	=118	=118	=118
*	*2\left	*	*	*	*
2CC\ 2C\	2E-\ 2A-\ 2c\	.	4ee-\	4eee-\	.
.	.	.	4cc\)	4ccc\)	.
=119	=119	=119	=119	=119	=119
*2\left	*	*	*	*`	*
!	!	!LO:DY:rj	!	!	!LO:DY:rj
2FF\	2F\ 2A-\ 2c\	ff	(>8a-/L	(>8aa-\L	ff
.	.	.	8g/J	8gg\J	.
.	.	.	4f/)	4ff\	.
!!LO:LB:g=original
=120	=120	=120	=120	=120	=120
*	*2\right	*	*	*	*
!	!	!LO:MO:mod=!null:null	!	!	!
!	!	!LO:DY:t=sf.	!	!LO:TX:t=P:problem=brak zakończenia łuku	!
[<2FFF\ [>\2FF	[<2C\ [<\2F [>\2A- [>\2c	sf	4r	2aa-^<\) 2aaa-	.
.	.	.	[<4cc\ [>4ccc	.	sf
=121	=121	=121	=121	=121	=121
*	*2\left	*	*	*8va	*
2FFF\_< 2FF\_>	2C\_< 2F\_< 2A-\_> 2c\_>	.	2cc\_< 2ccc_>	[<2aaa-\ [>\2aaaa-	fff
=122	=122	=122	=122	=122	=122
!LO:TX:t=P:problem=all\left&colon; global	!LO:TX:t=P:problem=all\left&colon; global	!	!LO:TX:t=P:4\right:problem	!	!
4FFF\] 4FF\]	4C\] 4F\] 4A-\] 4c\]	.	4cc\] 4ccc]	4aaa-\] 4aaaa-\]	.
*	*	*	*	*X8va	*
4r;>	4r;>	.	4r;>	4r;>	.
=123	=123	=123	=123	=123	=123
!!!OMD:
!!!OMD-mod: Più mosso
*^	*^	*	*	*	*
!	!	!	!	!LO:MO:mod=!null:null	!	!	!
!	!	!LO:TX:a:t=Piu mosso.:mod=	!	!LO:DY:t=piano	!	!LO:TX:a:t=Piu mosso.:mod=	!
4BB-/	4BBB-\ 4BB-\	8E-/L	4r	p	2r	2r	.
.	.	8F/J	.	.	.	.	.
!	!LO:TX:t=P:problem=all\right&colon; global	!	!LO:TX:b:i:t=e poi molto:mod=	!	!	!	!
4ryy	4EE-\	8G/L	4C\ 4E-	.	.	.	.
.	.	8A-/J	.	.	.	.	.
*v	*v	*	*	*	*	*	*
=124	=124	=124	=124	=124	=124	=124
4BBB-\ 4BB-	8G/L	4r	.	2r	2r	.
.	(<16G/L	.	.	.	.	.
.	[<16E-/JJ)	.	.	.	.	.
4EE-\	8G^>/L	4C\ 4E-\]	.	.	.	.
.	8A-/J	.	.	.	.	.
=125	=125	=125	=125	=125	=125	=125
!	!	!LO:TX:b:i:t=cres_cendo.:problem=dynamics with extention lines:mod=	!LO:HP:b:i:t=cres-cendo.:ext=ud	!	!	!
4BBB-\ 4BB-	8G/L	4r	<	2r	2r	.
.	(<16G/L	.	.	.	.	.
.	[<16E-/JJ)	.	.	.	.	.
!LO:TX:t=P:4\left:problem	!	!LO:TX:t=P:4\right:problem	!	!	!	!
4EE-\	8G^>/L	4C\ 4E-\]	.	.	.	.
.	8A-/J	.	.	.	.	.
!!LO:LB:g=original
=126	=126	=126	=126	=126	=126	=126
!LO:TX:t=P:problem=all\right&colon; global	!	!	!	!	!	!
4BBB-\ 4BB-\	8G/L	4r	.	2r	2r	.
.	8A-/J	.	.	.	.	.
!	!	!LO:TX:t=P:4\left:problem	!	!	!	!
4EE-\	8B-/L	4E-\ 4G\	.	.	.	.
!	!	!	!LO:MO:null:mod=.	!	!	!
.	8c/J	.	[	.	.	.
=127	=127	=127	=127	=127	=127	=127
4BBB-\ 4BB-\	8B-/L	4r	.	2r	2r	.
.	(16B-/L	.	.	.	.	.
.	[16G/JJ)	.	.	.	.	.
!	!	!LO:TX:t=P:4\right:problem	!	!	!	!
4EE-\	8B-^/L	4E-\ 4G\]	.	.	.	.
.	8c/J	.	.	.	.	.
=128	=128	=128	=128	=128	=128	=128
4BBB-\ 4BB-\	8B-/L	4r	.	2r	2r	.
.	(16B-/L	.	.	.	.	.
.	[16G/JJ)	.	.	.	.	.
!	!	!LO:TX:t=P:4\left:problem	!	!	!	!
4EE-\	8B-^/L	4E-\ 4G\]	.	.	.	.
.	8c/J	.	.	.	.	.
=129	=129	=129	=129	=129	=129	=129
!	!	!LO:TX:t=P:4\right:problem	!	!	!	!LO:DY:rj
4BBB-\ 4BB-\	8B-/L	4E-\ 4G	.	4r	8b-\L	f <
!	!	!	!	!	!LO:TX:a:t=staccato.:mod=staccato	!
!	!	!	!	!	!LO:TX:t=P:problem=all\left&colon; global	!
.	8c/J	.	.	.	8cc\	.
!	!	!LO:TX:t=P:4\left:problem	!	!	!	!
4EE-\	[4G/ [4B-/	4E-\ 4G\	.	8d/L	8dd\	.
.	.	.	.	8e-/J	8ee-\J	.
*	*v	*v	*	*	*	*
=130	=130	=130	=130	=130	=130
4BBB-\ 4BB-\	4D/ 4G/] 4B-/]	.	8d/L	8dd\L	.
!	!	!LO:MO:null:mod=[	!	!	!
.	.	.	8e-/	8ee-\	.
!	!	!LO:MO:mod=!null:null	!	!	!
!	!	!LO:DY:t=f.	!	!	!
4EE-\	4E-/ 4G/ 4B-/	f	8f/	8ff\	.
.	.	.	8g/J	8gg\J	.
=131	=131	=131	=131	=131	=131
!	!	!	!LO:TX:t=P:problem=all\right&colon; global	!	!
4BBB-\ 4BB-\	4r	.	8a-\L	8aa-\L	.
.	.	.	8b-\	8bb-\	.
!	!	!	!	!	!LO:DY:t=forte
!	!	!	!	!	!LO:MO:null:mod=.
4FF\	4E-/ 4A-/ 4B-/	.	8cc\	8ccc\	[ f
.	.	.	8dd\J	8ddd\J	.
!!LO:LB:g=original
=132	=132	=132	=132	=132	=132
*2\right	*	*	*	*	*
!	!	!	!LO:TX:t=P:problem=all\right&colon; global	!LO:TX:t=P:problem=all\middle&colon; global	!LO:MO:null:mod=.
2BBB-\ 2BB-\	4r	.	8ee-\L	8eee-\L	<
.	.	.	8f\	8ff\ 8fff\	.
!	!LO:TX:t=P:4\right:problem	!	!	!	!
.	4D\ 4A-\ 4B-\ 4d\	.	8g\	8gg\ 8ggg\	.
.	.	.	8a-\J	8aa-\J 8aaa-\	[
=133	=133	=133	=133	=133	=133
*2\left	*	*	*	*	*
!	!LO:TX:t=P:problem=4\middle	!	!	!LO:TX:t=P:4\right:problem	!
!	!LO:TX:b:i:t=grandioso	!	!	!LO:TX:b:i:t=grandioso	!
2EEE-\ 2EE-\	4E-\ 4G\ 4B-\ 4e-\	ff	4b-\	4bb-\ 4eee-\ 4ggg\ 4bbb-\	ff
!	!LO:TX:t=P:4\left:problem	!	!	!LO:TX:t=P:problem=all\left&colon; global	!
.	4D-X^>\ 4d-X\	.	(>16an\KL	(>16aan\KL 16aaan\	.
.	.	.	8.cc\J)	8.ccc\J 8.cccc\)	.
=134	=134	=134	=134	=134	=134
2EEE-\ 2EE-\	4r	.	4.b-/	4.bb-\ 4.bbb-\	.
!	!LO:TX:t=P:problem=4\right&colon; global	!	!	!	!
.	4D-X^>\ 4d-X\	.	.	.	.
.	.	.	8an/	8aa-X\ 8aaa-X\	.
=135	=135	=135	=135	=135	=135
!	!	!	!LO:SIC:s=8gL^	!LO:TX:t=P:problem=8\right	!
2EEE-\ 2EE-\	4r	.	8g/L	8gg^>\L 8ggg\	.
.	.	.	(<16g/L	(>16gg\L 16ggg\	.
.	.	.	16e-/JJ)	16eee-\JJ)	.
.	4D-X^>\ 4d-X\	.	8g'</L	8ggg'>\L	.
.	.	.	8a-'</J	8aa-'>\J 8aaa-\	.
=136	=136	=136	=136	=136	=136
2EEE-\ 2EE-\	4r	.	8g/L'>	8gg'>\L 8ggg\	.
!	!	!	!LO:SIC:s=8f/J'	!LO:TX:t=P:problem=all\right&colon; global	!
.	.	.	8f/J	8ff'>\J 8fff\	.
!	!LO:TX:t=P:problem=4\left&colon; global	!	!	!	!
.	4D-X^>\ 4d-X\	.	4e-/^>	4ee-^>\ 4eee-\	.
=137	=137	=137	=137	=137	=137
!	!	!	!LO:TX:t=P:problem=all\left&colon; global	!	!LO:MO:null:mod=.
!	!	!	!LO:SIC:s=4b-^(	!	!
2EEE-\ 2EE-\	4r	.	4b-\	(>4ee-^>\ 4gg\ 4bb-\	ff
.	4D-X^>\ 4d-X\	.	(>16an\KL	(>16aan\KL	.
.	.	.	8.cc\J)	8.ccc\J)	.
!!LO:LB:g=original
=138	=138	=138	=138	=138	=138
!	!	!	!	!LO:TX:t=P:problem=all\left&colon; global	!
2EEE-\ 2EE-\	4r	.	4.b-/	4.bb-\	.
!	!LO:TX:t=P:4\right:problem	!	!	!	!
.	4D-X^>\ 4d-X\	.	.	.	.
.	.	.	8a-X/	8aa-X\	.
=139	=139	=139	=139	=139	=139
2EEE-\ 2EE-\	4r	.	8g/L	8gg\L	.
.	.	.	(<16g/L	(>16gg\L	.
.	.	.	16e-/JJ)	16ee-\JJ)	.
!	!LO:TX:t=P:4\left:problem	!	!	!	!
.	4D-X^>\ 4d-X\	.	8g/L	8gg\L	.
.	.	.	8a-/J	8aa-\J	.
=140	=140	=140	=140	=140	=140
2EEE-\ 2EE-\	4r	.	8g/L	8gg\L	.
!	!	!	!	!LO:TX:t=P:problem=8\right	!
.	.	.	8f/J	8ff\J	.
!	!LO:TX:t=P:problem=all\right&colon; global	!	!	!	!
!	!LO:ART:color=gray	!	!LO:SIC:s=4b-^)	!	!
.	4C^>\@ 4E-\@ 4A-\@ 4c\@	.	4b-^>/	4bb-^>\)	.
=141	=141	=141	=141	=141	=141
!	!	!	!	!LO:TX:t=P:problem=all\right&colon; global	!
2EEE-\ 2EE-\	4r	.	(>8g/L	(>8gg\L	.
.	.	.	8f/J	8ff\J	.
.	4C-X^>\ 4E-\ 4A-\ 4c-X\	.	4b-^>/)	4bb-^\)	.
=142	=142	=142	=142	=142	=142
2EEE-\ 2EE-\	4r	.	(>8g/L	(>8gg\L	.
.	.	.	8f/J	8ff\J	.
!	!	!	!LO:SIC:s=4b-)^	!LO:TX:t=P:problem=4\middle	!
.	4BB-^>\ 4D\ 4A-\ 4B-\	.	4b-/)	4dd^>\) 4ff 4bb-	.
=143	=143	=143	=143	=143	=143
*	*	*	*	*	*^
!	!	!LO:DY:a	!LO:MO:null:mod=*ped	!LO:MO:null:mod=.	!LO:DY:a	!
*	*	*	*	*ped	*	*
[<2EEE-\ [>2EE-\	4BB-\ 4E-\ 4G\ 4B-\	sf	4e-/ 4g/ 4b-/	4ee-\ 4gg\ 4bb-\	sf	sf
!	!	!	!	!LO:TX:a:t=acce-lerando:dur=3q:ext=ud:problem=text with extention lines	!	!LO:MO:null:mod=fff
!	!LO:SIC:s=8G\L'	!LO:MO:null:mod=fff	!	!LO:SIC:s=8g\L'	!LO:MO:null:mod=fff	!
.	8G\L|	.	4r	8g/L	.	.
!	!LO:SIC:s=8B-\J'	!LO:MO:null:mod=.	!	!LO:SIC:s=8b-\J'	!LO:MO:null:mod=.	!
.	8B-\J|	fff	.	8b-/J	fff	.
*	*	*	*	*	*v	*v
!!LO:LB:g=original
=144	=144	=144	=144	=144	=144
!	!LO:TX:t=P:problem=all\left&colon; global	!	!	!LO:TX:t=P:problem=all\right&colon; global	!
2EEE-\] 2EE-\]	8E-'>\L	.	8e-'</L	8ee-'>\L	.
.	8G'>\	.	8g'</	8gg'>\	.
.	8B-'>\	.	8b-'</	8bb-'>\	.
.	8e-'>\J	.	8ee-'</J	8eee-'>\J	.
=145	=145	=145	=145	=145	=145
!	!	!	!	!	!LO:MO:null:mod=!LO&colon;DY&colon;ed=brack
!	!	!	!	!	!
!	!LO:TX:t=P:4\right:problem	!	!LO:TX:t=P:4\left:problem	!	!LO:MO:null:mod=sf
[<2EEE-\ [>2EE-\	4G\ 4B-\ 4e-\ 4g\	sf	4gg\	4ggg\	.
!	!	!	!LO:TX:t=P:problem=all\right&colon; global	!LO:TX:t=P:problem=8\left	!
!	!LO:SIC:s=8G\L'	!	!	!	!
.	8G\L|	<	8g'>\L	8gg'>\L	<
!	!LO:SIC:s=8B-\J'	!	!	!	!
.	8B-\J|	.	8b-'>\J	8bb-'>\J	.
=146	=146	=146	=146	=146	=146
*	*clefG2	*	*	*	*
!	!	!	!LO:TX:t=P:problem=8\left	!	!
2EEE-\] 2EE-\]	8e-/L'>	.	8ee-'>\L	8eee-'>\L	.
!	!LO:SIC:s=8g'	!	!	!	!
.	8g/|	.	8gg'>\	8ggg'>\	.
*	*	*	*	*8va	*
.	8b-/'>	.	8bb-'>\	8bbb-'>\	.
!	!	!	!	!	!LO:MO:null:mod=[[
.	8ee-/J'>	[[	8eee-'>\J	8eeee-'>\J	.
=147	=147	=147	=147	=147	=147
!LO:TX:t=P:problem=4\right&colon; global	!	!	!	!	!LO:MO:null:mod=.
4EEE-^>\ 4EE-\	4e-^>/ 4g/ 4b-/ 4ee-/	.	[>2gg\	[<2ggg\ [>\2gggg	[
4EE-^>\ 4E-\	4e-^>/ 4ee-/	.	.	.	.
*	*clefF4	*	*	*	*
=148	=148	=148	=148	=148	=148
!	!	!	!	!LO:TX:t=P:problem=all\left&colon; global	!
2EEE-^>\ 2EE-\	2E-^>\ 2e-\	.	4gg\]	4ggg\] 4gggg\]	.
!	!	!	!LO:TX:t=P:4\left:problem	!	!
.	.	.	4g\ 4b-\ 4ee-\ 4gg\	4eee-\ 4ggg\ 4bbb-\ 4eeee-\	sf
*	*	*	*	*X8va	*
=149	=149	=149	=149	=149	=149
2EEE-;>\ 2EE-\	2E-;>\	sf	2e-^>;>/	2ee-^>;>\	.
==	==	==	==	==	==
*-	*-	*-	*-	*-	*-
!!!system-decoration: {(g1)},{(g2)}
!!!RDF**kern: > = above
!!!RDF**kern: < = below
!!!RDF**kern: N = linked
!!LO:MO:ori
!!!RDF**kern: @ = marked note, color=grey
!!LO:MO:end
!!!ENC: Anastazja Marusiak
!!!END: 2021-11-09
!!!EED: Jędrzej Mróz
!!!ESR: 2021-11-22
!!!ENC-modern: Andrzej Borzym
!!!END-modern: 2022-08-28
!!!YEC: Copyright 2022 Narodowy Instytut Fryderyka Chopina (https://polishscores.org)
!!!YEM: License CC-BY-4.0 (https://creativecommons.org/licenses/by/4.0)
